app/assets/images/payment_icons/diners_club.svg

<svg xmlns="http://www.w3.org/2000/svg" width="38" height="24" viewBox="0 0 38 24" fill="none" aria-labelledby="pi-diners_club" role="img"><title id="pi-diners_club">Diners Club</title><rect width="38" height="24" fill="white"/><path d="M20.2588 18.9999C24.0506 19.0182 27.5115 15.8792 27.5115 12.0606C27.5115 7.88501 24.0506 4.99844 20.2588 5H16.9955C13.1585 4.99844 10 7.88579 10 12.0606C10 15.88 13.1585 19.0182 16.9955 18.9999H20.2588Z" fill="#0079BE"/><path d="M17.011 5.57864C13.5045 5.57981 10.6636 8.44767 10.6624 11.9873C10.6636 15.5265 13.5045 18.3944 17.011 18.3956C20.5179 18.3944 23.3601 15.5265 23.3605 11.9873C23.3601 8.44767 20.5183 5.57981 17.011 5.57864ZM12.9871 11.9873C12.9863 11.1689 13.2325 10.3693 13.6934 9.69306C14.1543 9.0168 14.8085 8.4953 15.5705 8.19674V15.7775C14.8084 15.4791 14.1542 14.9577 13.6932 14.2815C13.2323 13.6053 12.9862 12.8057 12.9871 11.9873ZM18.4512 15.779V8.19635C19.2138 8.49449 19.8685 9.01594 20.3298 9.69243C20.791 10.3689 21.0372 11.1689 21.0362 11.9877C21.0371 12.8064 20.7908 13.6064 20.3296 14.2828C19.8683 14.9593 19.2137 15.4808 18.4512 15.779Z" fill="white"/><path d="M20.2588 18.9999C24.0506 19.0182 27.5115 15.8792 27.5115 12.0606C27.5115 7.88501 24.0506 4.99844 20.2588 5H16.9955C13.1585 4.99844 10 7.88579 10 12.0606C10 15.88 13.1585 19.0182 16.9955 18.9999H20.2588Z" fill="#0079BE"/><path d="M17.011 5.57864C13.5045 5.57981 10.6636 8.44767 10.6624 11.9873C10.6636 15.5265 13.5045 18.3944 17.011 18.3956C20.5179 18.3944 23.3601 15.5265 23.3605 11.9873C23.3601 8.44767 20.5183 5.57981 17.011 5.57864ZM12.9871 11.9873C12.9863 11.1689 13.2325 10.3693 13.6934 9.69306C14.1543 9.0168 14.8085 8.4953 15.5705 8.19674V15.7775C14.8084 15.4791 14.1542 14.9577 13.6932 14.2815C13.2323 13.6053 12.9862 12.8057 12.9871 11.9873ZM18.4512 15.779V8.19635C19.2138 8.49449 19.8685 9.01594 20.3298 9.69243C20.791 10.3689 21.0372 11.1689 21.0362 11.9877C21.0371 12.8064 20.7908 13.6064 20.3296 14.2828C19.8683 14.9593 19.2137 15.4808 18.4512 15.779Z" fill="white"/></svg>

<svg xmlns="http://www.w3.org/2000/svg" width="38" height="24" fill="none" aria-labelledby="pi-diners_club" role="img" viewBox="0 0 38 24"><title id="pi-diners_club">Diners Club</title><path fill="#fff" d="M0 0h38v24H0z"/><path fill="#0079BE" d="M20.259 19c3.792.018 7.253-3.12 7.253-6.94 0-4.175-3.461-7.062-7.253-7.06h-3.264C13.159 4.998 10 7.886 10 12.06c0 3.82 3.159 6.958 6.996 6.94z"/><path fill="#fff" d="M17.011 5.579c-3.506 0-6.347 2.869-6.349 6.408.002 3.54 2.842 6.407 6.349 6.409 3.507-.002 6.35-2.87 6.35-6.409 0-3.54-2.843-6.407-6.35-6.408m-4.024 6.408a4.07 4.07 0 0 1 2.583-3.79v7.58a4.07 4.07 0 0 1-2.583-3.79m5.464 3.792V8.196a4.065 4.065 0 0 1 2.585 3.792 4.07 4.07 0 0 1-2.585 3.791"/><path fill="#0079BE" d="M20.259 19c3.792.018 7.253-3.12 7.253-6.94 0-4.175-3.461-7.062-7.253-7.06h-3.264C13.159 4.998 10 7.886 10 12.06c0 3.82 3.159 6.958 6.996 6.94z"/><path fill="#fff" d="M17.011 5.579c-3.506 0-6.347 2.869-6.349 6.408.002 3.54 2.842 6.407 6.349 6.409 3.507-.002 6.35-2.87 6.35-6.409 0-3.54-2.843-6.407-6.35-6.408m-4.024 6.408a4.07 4.07 0 0 1 2.583-3.79v7.58a4.07 4.07 0 0 1-2.583-3.79m5.464 3.792V8.196a4.065 4.065 0 0 1 2.585 3.792 4.07 4.07 0 0 1-2.585 3.791"/></svg>
